X: 16266
T: Greta's Favourite
R: reel
M: 4/4
K: Adorian
|:aege dcAB|(3cBA BG AGEG|aege dGBd|egdg eaad|
(3ege ae gabg|edcB AGEG|=FAcA GdBd|egde cAA2:|
|:eaab c'bac'|bagd edgf|eaab gabd'|(3e'd'c' d'b c'abg|
(3ac'a ga egde|~c2Bc AGEG|=FAcA GdBd|(3ege de cAA2:|

